dist/svg/thumbtack.svg

<svg width="16" height="16" viewBox="0 0 16 16" fill="rgb(34, 34, 34)" xmlns="http://www.w3.org/2000/svg"><title>thumbtack</title><path d="M16 4.6L14.9 5.7C14.5 6.1 13.9 6.1 13.5 5.7L13.1 5.3L10.6 8.6L11.2 9.2C12 10 12 11.2 11.2 12L10.2 13L2.99999 5.8L3.99999 4.8C4.79999 4 5.99999 4 6.79999 4.8L7.39999 5.4L10.7 3L10.3 2.6C9.89999 2.2 9.89999 1.6 10.3 1.2L11.4 0L16 4.6ZM0.0999939 15.5C-6.10203e-06 15.6 -6.10203e-06 15.8 0.0999939 15.9C0.199994 16 0.399994 16 0.499994 15.9L6.69999 10.9L5.09999 9.3L0.0999939 15.5Z" fill="rgb(34, 34, 34)" fill-opacity="1.00"/></svg>

<!-- Generated by Trend Micro Style Portal -->
<svg version="1.1" xmlns="http://www.w3.org/2000/svg" width="16" height="16" viewBox="0 0 16 16">
  <title>thumbtack</title>
  <path fill="rgb(34,34,34)" d="M16 4.6l-1.1 1.1c-0.4 0.4-1 0.4-1.4 0 0 0 0 0 0 0l-0.4-0.4-2.5 3.3 0.6 0.6c0.8 0.8 0.8 2 0 2.8l-1 1-7.2-7.2 1-1c0.8-0.8 2-0.8 2.8 0 0 0 0 0 0 0l0.6 0.6 3.3-2.4-0.4-0.4c-0.4-0.4-0.4-1 0-1.4 0 0 0 0 0 0l1.1-1.2 4.6 4.6zM0.1 15.5c-0.1 0.1-0.1 0.3 0 0.4s0.3 0.1 0.4 0l6.2-5-1.6-1.6-5 6.2z"></path>
</svg>
